X:467
T: Ein Fhnrich zog zum Kriege (5-63), S. 103
N: P0737
O: Lothringen
S: MERKELBACH-PINCK, Angelika: Verklingende Weisen, Bd 5, Kassel 1962]
R: Kriegs- und Soldatenlied, historisch]
M: 4/4
L: 1/8
K: F
C2 | A2A2A2c2 | c4A2
AA | G2GGG2c2 | F2A2A2
C2 | A2A2A2c2 | c4A2
A2 | G3AB2c2 | A4
d4 | c3AB2c2 | A4z2

@@@ Tune index: 8017
